packages/core/src/svgs/vex.svg

<svg width="24" height="24" viewBox="0 0 24 24" fill="none" xmlns="http://www.w3.org/2000/svg">
<g clip-path="url(#clip0_31_20389)">
<path d="M0 0H24V24H0V0Z" fill="#F0F3FA"/>
<path d="M8.71293 9.35578C7.38436 7.35864 9.15864 5.43007 10.2129 4.71436C6.74578 5.28436 6.54864 7.80864 6.88293 9.00007C6.21436 8.85864 6.04721 7.51293 6.04721 6.85721C4.5815 9.57007 5.9915 11.3229 6.88293 11.8586C6.41686 11.7284 5.98318 11.5021 5.60972 11.1943C5.23627 10.8865 4.93129 10.5041 4.71436 10.0715C4.71436 12.5015 6.93864 13.7015 8.04864 14.0015C7.24721 14.0015 6.27007 13.7615 5.88007 13.6415C6.28293 15.3558 9.0515 16.3844 10.3801 16.6801C10.1529 16.5558 9.58721 15.9086 9.22293 15.4629C9.60007 15.8529 10.3372 16.2986 10.7144 16.5001C10.5944 16.5001 10.4701 16.6415 10.3158 16.8258C10.0458 17.1429 9.6815 17.5715 9.04721 17.5715C8.24578 17.5715 7.4915 16.9758 7.21293 16.6801C7.54721 17.9272 7.8815 18.4629 8.71293 18.6429C9.3815 18.7844 10.1015 18.1072 10.3844 17.7515C9.9815 18.8915 8.88436 18.9386 8.38293 18.8229C8.49007 18.9986 8.91436 19.3586 9.7115 19.3586C10.5129 19.3586 11.0486 18.1672 11.2115 17.5715C11.2049 17.9963 11.0955 18.4132 10.8924 18.7864C10.6894 19.1597 10.3989 19.4781 10.0458 19.7144H11.0486C12.3772 19.4272 12.2701 17.9272 12.0472 17.2158C12.7158 18.2144 12.4329 19.0586 12.2144 19.3586C13.4144 18.7844 13.1572 17.6872 12.8829 17.2158C13.1486 17.3572 13.3244 17.9872 13.3801 18.2872C13.6458 17.4301 13.3801 16.8558 13.2129 16.6801C13.7486 16.5344 14.6572 15.6686 15.0472 15.2486C14.7129 15.8175 14.2579 16.3061 13.7144 16.6801C16.7829 16.6801 18.1029 14.6529 18.3815 13.6415C17.1815 14.0701 16.4358 14.0615 16.2129 14.0015C17.1458 13.819 17.9932 13.3359 18.6255 12.6262C19.2578 11.9165 19.6403 11.0192 19.7144 10.0715C19.5574 10.5431 19.2707 10.9609 18.8871 11.277C18.5036 11.5931 18.0387 11.7947 17.5458 11.8586C19.8172 10.2858 18.9429 7.87293 18.2144 6.85721C18.3472 8.28436 17.7129 9.00007 17.3829 9.18007C17.9144 5.89293 15.3815 4.83436 14.0486 4.71436C16.9801 6.85721 16.2686 8.82007 15.5486 9.53578C16.6158 12.5358 14.9915 13.6415 14.0486 13.8215C15.3772 12.9644 15.3772 11.9186 15.2144 11.4986C15.0815 12.6429 14.0486 12.9301 13.5472 12.9301C14.0829 11.6444 13.2129 10.2515 12.7158 9.71578C12.8444 9.57007 13.2129 9.65578 13.3801 9.71578C13.3801 9.57007 12.9386 9.53578 12.7158 9.53578C13.0405 9.43179 13.3896 9.43179 13.7144 9.53578C13.5022 9.37653 13.2595 9.26274 13.0014 9.20153C12.7433 9.14033 12.4754 9.13302 12.2144 9.18007C12.7458 9.03436 13.1015 9.12007 13.2129 9.18007C12.9381 8.93729 12.5809 8.80853 12.2144 8.82007C11.6829 8.82007 10.9929 9.29578 10.7144 9.53578L10.5472 9.35578C10.6029 9.47578 10.6458 9.78436 10.3801 10.0715C10.1144 10.3586 10.0458 10.9029 10.0458 11.1429C10.0458 10.8558 10.3801 10.7872 10.5472 10.7872L10.3801 10.9629C11.3144 10.5344 11.6572 11.3829 11.7129 11.8586C11.7129 12.7158 11.1558 13.0458 10.8815 13.1058C9.81436 12.9644 9.21436 11.9744 9.04721 11.4986C8.83293 12.6686 9.4115 13.3586 9.90436 13.6672C7.97578 12.5958 8.29293 10.3758 8.71293 9.35578ZM10.7144 10.2515C10.7144 10.1315 10.8472 9.85721 11.3786 9.71578V9.8915L10.7144 10.2515Z" fill="url(#paint0_linear_31_20389)"/>
<path d="M14.2673 13.7658L14.2158 13.8215C14.5458 14.0015 15.4458 14.3572 16.3801 14.3572C17.1057 14.3379 17.8065 14.0888 18.3815 13.6458C17.1815 14.0743 16.4358 14.0615 16.213 14.0015C16.8623 13.8787 17.4744 13.6075 18.0015 13.209C18.5286 12.8105 18.9564 12.2956 19.2515 11.7043L19.6672 10.4829L19.7015 10.2515C18.4844 12.8872 16.3158 13.4186 15.0558 13.3286C14.7987 13.5429 14.5201 13.6886 14.2673 13.7658Z" fill="url(#paint1_linear_31_20389)"/>
<path d="M15.1414 13.2512C16.8814 13.2512 18.5828 12.4626 19.5899 10.8126C19.6565 10.5704 19.6982 10.3219 19.7142 10.0712C19.5572 10.5428 19.2705 10.9606 18.887 11.2767C18.5034 11.5928 18.0385 11.7944 17.5456 11.8583C19.6028 10.4355 19.0756 8.31833 18.4199 7.18262C18.6642 8.72119 18.3556 10.8898 15.8914 11.5969C15.8624 12.224 15.594 12.8161 15.1414 13.2512Z" fill="url(#paint2_linear_31_20389)"/>
<path d="M8.48566 11.7984C5.90994 11.0956 5.63994 8.71272 5.90137 7.14844C4.67994 9.69415 6.02566 11.3399 6.87851 11.8584C6.02151 11.6213 5.28916 11.0625 4.83423 10.2984C5.49851 12.6299 7.92423 13.1527 9.17566 13.1099C8.83147 12.743 8.59304 12.2899 8.48566 11.7984Z" fill="url(#paint3_linear_31_20389)"/>
<path d="M9.19293 13.127C6.49293 13.2127 5.2715 11.5756 4.86436 10.3413C4.80885 10.2545 4.75876 10.1643 4.71436 10.0713C4.71436 12.5013 6.93864 13.7013 8.04864 14.0013C7.24721 14.0013 6.27007 13.7613 5.88007 13.6413L5.89721 13.7013C6.42242 14.0991 7.05616 14.3278 7.71436 14.357C8.91436 14.357 9.88293 14.0013 10.2129 13.8213C10.2129 13.8213 8.97007 13.0799 9.90864 13.667C9.64465 13.5234 9.40344 13.3415 9.19293 13.127Z" fill="url(#paint4_linear_31_20389)"/>
<path d="M10.1743 4.74436C9.15858 5.19007 7.71429 6.1415 7.38 7.57293C7.25831 8.10655 7.29214 8.66388 7.47748 9.17887C7.66281 9.69387 7.99189 10.1449 8.42572 10.4786C8.36873 10.9172 8.38758 11.3622 8.48143 11.7944C5.66143 10.9715 5.58429 8.50293 6.01286 6.92578L6.04715 6.85721C6.04715 7.51293 6.21429 8.85864 6.87858 9.00007C6.54858 7.80864 6.75 5.28436 10.2129 4.71436L10.17 4.74436H10.1743Z" fill="url(#paint5_linear_31_20389)"/>
</g>
<defs>
<linearGradient id="paint0_linear_31_20389" x1="12.2144" y1="4.71436" x2="12.2144" y2="19.7144" gradientUnits="userSpaceOnUse">
<stop stop-color="#FF680B"/>
<stop offset="0.37" stop-color="#DF0B1B"/>
<stop offset="0.5" stop-color="#F9580E"/>
<stop offset="0.71" stop-color="#E51E18"/>
<stop offset="1" stop-color="#DB001D"/>
</linearGradient>
<linearGradient id="paint1_linear_31_20389" x1="16.5472" y1="13.1058" x2="16.9287" y2="14.3443" gradientUnits="userSpaceOnUse">
<stop stop-color="#F34711"/>
<stop offset="1" stop-color="#FB5C0D"/>
</linearGradient>
<linearGradient id="paint2_linear_31_20389" x1="17.3828" y1="10.6069" x2="17.3828" y2="12.7498" gradientUnits="userSpaceOnUse">
<stop stop-color="#ED3414"/>
<stop offset="1" stop-color="#F9560E"/>
</linearGradient>
<linearGradient id="paint3_linear_31_20389" x1="7.2128" y1="11.3227" x2="6.47566" y2="12.527" gradientUnits="userSpaceOnUse">
<stop stop-color="#EF3913"/>
<stop offset="1" stop-color="#FA580E"/>
</linearGradient>
<linearGradient id="paint4_linear_31_20389" x1="7.8815" y1="12.9299" x2="7.41007" y2="14.3399" gradientUnits="userSpaceOnUse">
<stop stop-color="#F24311"/>
<stop offset="1" stop-color="#FB5C0D"/>
</linearGradient>
<linearGradient id="paint5_linear_31_20389" x1="8.01858" y1="4.71436" x2="8.01858" y2="11.7944" gradientUnits="userSpaceOnUse">
<stop stop-color="#E21519"/>
<stop offset="1" stop-color="#F54A10"/>
</linearGradient>
<clipPath id="clip0_31_20389">
<rect width="24" height="24" fill="white"/>
</clipPath>
</defs>
</svg>

<svg xmlns="http://www.w3.org/2000/svg" width="24" height="24" fill="none" viewBox="0 0 24 24"><g clip-path="url(#a)"><path fill="#F0F3FA" d="M0 0h24v24H0z"/><path fill="url(#b)" d="M8.713 9.356c-1.329-1.997.446-3.926 1.5-4.642C6.746 5.284 6.549 7.81 6.883 9c-.669-.141-.836-1.487-.836-2.143-1.465 2.713-.055 4.466.836 5.002a3.47 3.47 0 0 1-2.169-1.787c0 2.43 2.225 3.63 3.335 3.93-.802 0-1.779-.24-2.169-.36.403 1.714 3.172 2.742 4.5 3.038-.227-.124-.793-.771-1.157-1.217.377.39 1.114.836 1.491 1.037-.12 0-.244.142-.398.326-.27.317-.635.745-1.269.745-.801 0-1.556-.595-1.834-.89.334 1.246.668 1.782 1.5 1.962.669.141 1.389-.536 1.671-.892-.402 1.14-1.5 1.188-2.001 1.072.107.176.531.536 1.329.536.8 0 1.337-1.192 1.5-1.788a2.63 2.63 0 0 1-1.166 2.143h1.003c1.328-.287 1.221-1.787.998-2.498.669.998.386 1.843.167 2.143 1.2-.575.943-1.672.669-2.143.266.141.441.771.497 1.071.266-.857 0-1.431-.167-1.607.536-.146 1.444-1.011 1.834-1.431a4.5 4.5 0 0 1-1.333 1.431c3.069 0 4.389-2.027 4.667-3.038-1.2.428-1.945.42-2.168.36a4.35 4.35 0 0 0 3.501-3.93 2.64 2.64 0 0 1-2.168 1.787c2.271-1.573 1.397-3.986.668-5.002.133 1.427-.501 2.143-.831 2.323.531-3.287-2.001-4.346-3.334-4.466 2.931 2.143 2.22 4.106 1.5 4.822 1.067 3-.557 4.106-1.5 4.286 1.328-.858 1.328-1.903 1.165-2.323-.133 1.144-1.165 1.431-1.667 1.431.536-1.286-.334-2.678-.831-3.214.128-.146.497-.06.664 0 0-.146-.441-.18-.664-.18.325-.104.674-.104.998 0a1.93 1.93 0 0 0-1.5-.356c.532-.146.887-.06.999 0a1.44 1.44 0 0 0-.999-.36c-.531 0-1.221.476-1.5.716l-.167-.18c.056.12.099.428-.167.716-.266.287-.334.83-.334 1.07 0-.286.334-.355.501-.355l-.167.176c.934-.429 1.277.42 1.333.896 0 .857-.557 1.187-.831 1.247-1.068-.142-1.668-1.132-1.835-1.607-.214 1.17.364 1.86.857 2.168-1.928-1.071-1.611-3.291-1.191-4.311m2.001.896c0-.12.133-.395.665-.536v.176z"/><path fill="url(#c)" d="m14.267 13.766-.051.056c.33.18 1.23.535 2.164.535a3.43 3.43 0 0 0 2.002-.711c-1.2.428-1.946.415-2.169.355a4.29 4.29 0 0 0 3.038-2.297l.416-1.221.034-.232c-1.217 2.636-3.385 3.168-4.645 3.078-.257.214-.536.36-.789.437"/><path fill="url(#d)" d="M15.141 13.251c1.74 0 3.442-.788 4.449-2.438q.1-.365.124-.742a2.65 2.65 0 0 1-2.168 1.787c2.057-1.423 1.53-3.54.874-4.675.244 1.538-.064 3.707-2.529 4.414a2.45 2.45 0 0 1-.75 1.654"/><path fill="url(#e)" d="M8.486 11.798C5.91 11.096 5.64 8.713 5.9 7.148c-1.221 2.546.125 4.192.978 4.71a3.45 3.45 0 0 1-2.045-1.56c.665 2.332 3.09 2.855 4.342 2.812a2.8 2.8 0 0 1-.69-1.312"/><path fill="url(#f)" d="M9.193 13.127c-2.7.086-3.921-1.551-4.329-2.786a3 3 0 0 1-.15-.27c0 2.43 2.225 3.63 3.335 3.93-.802 0-1.779-.24-2.169-.36l.017.06a3.25 3.25 0 0 0 1.817.656c1.2 0 2.169-.356 2.499-.536 0 0-1.243-.741-.304-.154a3 3 0 0 1-.716-.54"/><path fill="url(#g)" d="M10.174 4.744C9.16 5.19 7.714 6.142 7.38 7.573a2.86 2.86 0 0 0 1.046 2.906c-.057.438-.038.883.055 1.315-2.82-.822-2.897-3.291-2.468-4.868l.034-.069c0 .656.167 2.002.832 2.143-.33-1.191-.129-3.716 3.334-4.286l-.043.03z"/></g><defs><linearGradient id="b" x1="12.214" x2="12.214" y1="4.714" y2="19.714" gradientUnits="userSpaceOnUse"><stop stop-color="#FF680B"/><stop offset=".37" stop-color="#DF0B1B"/><stop offset=".5" stop-color="#F9580E"/><stop offset=".71" stop-color="#E51E18"/><stop offset="1" stop-color="#DB001D"/></linearGradient><linearGradient id="c" x1="16.547" x2="16.929" y1="13.106" y2="14.344" gradientUnits="userSpaceOnUse"><stop stop-color="#F34711"/><stop offset="1" stop-color="#FB5C0D"/></linearGradient><linearGradient id="d" x1="17.383" x2="17.383" y1="10.607" y2="12.75" gradientUnits="userSpaceOnUse"><stop stop-color="#ED3414"/><stop offset="1" stop-color="#F9560E"/></linearGradient><linearGradient id="e" x1="7.213" x2="6.476" y1="11.323" y2="12.527" gradientUnits="userSpaceOnUse"><stop stop-color="#EF3913"/><stop offset="1" stop-color="#FA580E"/></linearGradient><linearGradient id="f" x1="7.881" x2="7.41" y1="12.93" y2="14.34" gradientUnits="userSpaceOnUse"><stop stop-color="#F24311"/><stop offset="1" stop-color="#FB5C0D"/></linearGradient><linearGradient id="g" x1="8.019" x2="8.019" y1="4.714" y2="11.794" gradientUnits="userSpaceOnUse"><stop stop-color="#E21519"/><stop offset="1" stop-color="#F54A10"/></linearGradient><clipPath id="a"><path fill="#fff" d="M0 0h24v24H0z"/></clipPath></defs></svg>
